X:1
T:Nature Boy
C:x
Q:1/4=90
M:C
K:F
L:1/4
V:1
A, | A/F/ D3 | z z/ A,/ E/F/G/B/ | A/F/ D3 |
V:2 bass 
z | [F,A,D]2 [F,A,D]2 | [G,B,DE]2 [G,B,D]2 | [F,A,D]2 [F,A,D]2 |
